; generated by PrusaSlicer 2.9.5 on 2026-06-25 at 12:20:00 UTC

; 

; external perimeters extrusion width = 0.45mm
; perimeters extrusion width = 0.45mm
; infill extrusion width = 0.45mm
; solid infill extrusion width = 0.45mm
; top infill extrusion width = 0.40mm
; first layer extrusion width = 0.42mm

; external perimeters extrusion width = 0.45mm
; perimeters extrusion width = 0.45mm
; infill extrusion width = 0.45mm
; solid infill extrusion width = 0.45mm
; top infill extrusion width = 0.40mm
; first layer extrusion width = 0.42mm

M190 S70 ; set bed temperature and wait for it to be reached
M104 S208 ; set temperature
;TYPE:Custom
G28 ; home all axes
G1 Z5 F5000 ; lift nozzle
M109 S208 ; set temperature and wait for it to be reached
G21 ; set units to millimeters
G90 ; use absolute coordinates
M82 ; use absolute distances for extrusion
G92 E0
; Filament gcode
M107
;LAYER_CHANGE
;Z:0.35
;HEIGHT:0.35
G1 E-2 F2400
G92 E0
G1 Z.35 F7800
G1 X0 Y.383
G1 E2 F2400
;TYPE:Skirt/Brim
;WIDTH:0.42
G1 F1800
G1 X27.557 Y.386 E3.38297
G1 X27.757 Y.48 E3.39406
G1 X29.626 Y2.35 E3.52675
G1 X29.717 Y2.582 E3.53926
G1 X29.717 Y56.213 E6.23078
G1 X29.626 Y56.445 E6.24329
G1 X27.748 Y58.324 E6.37661
G1 X27.515 Y58.415 E6.38916
G1 X-27.515 Y58.415 E9.15089
G1 X-27.748 Y58.324 E9.16344
G1 X-29.626 Y56.445 E9.29676
G1 X-29.717 Y56.213 E9.30927
G1 X-29.717 Y2.582 E12.00079
G1 X-29.626 Y2.35 E12.0133
G1 X-27.748 Y.471 E12.14662
G1 X-27.515 Y.38 E12.15917
G1 X-.06 Y.383 E13.53702
G1 X-.06 Y.725 F7800
G1 F1800
G1 X27.477 Y.725 E14.91899
G1 X29.372 Y2.621 E15.05352
G1 X29.346 Y56.238 E17.74434
G1 X27.477 Y58.07 E17.87568
G1 X-27.54 Y58.044 E20.63676
G1 X-29.372 Y56.174 E20.76814
G1 X-29.346 Y2.557 E23.45896
G1 X-27.477 Y.725 E23.5903
G1 X-.12 Y.725 E24.96324
G1 X-.12 Y-.083 F7800
G1 F1800
G1 X-27.514 Y-.083 E26.33803
G1 X-27.747 Y-.174 E26.35058
G1 X-29.625 Y-2.052 E26.48387
G1 X-29.716 Y-2.285 E26.49642
G1 X-29.716 Y-54.216 E29.10262
G1 X-29.625 Y-54.448 E29.11513
G1 X-27.747 Y-56.327 E29.24845
G1 X-27.514 Y-56.418 E29.261
G1 X27.556 Y-56.412 E32.02474
G1 X27.756 Y-56.317 E32.03585
G1 X29.625 Y-54.448 E32.1685
G1 X29.716 Y-54.216 E32.18101
G1 X29.716 Y-2.285 E34.78721
G1 X29.625 Y-2.052 E34.79976
G1 X27.747 Y-.174 E34.93305
G1 X27.514 Y-.083 E34.9456
G1 X-.06 Y-.083 E36.32943
G1 X-.06 Y-.441 F7800
G1 F1800
G1 X-27.476 Y-.428 E37.70533
G1 X-29.345 Y-2.26 E37.83667
G1 X-29.371 Y-54.177 E40.44217
G1 X-27.539 Y-56.046 E40.57351
G1 X27.476 Y-56.073 E43.33449
G1 X29.371 Y-54.177 E43.46902
G1 X29.371 Y-2.323 E46.07136
G1 X27.539 Y-.454 E46.2027
G1 X0 Y-.441 E47.58477
G1 E45.58477 F2400
G92 E0
G92 E0
G1 X25.644 Y-52.345 F7800
G1 E2 F2400
;TYPE:Perimeter
;WIDTH:0.42
G1 F1800
G1 X25.644 Y-4.155 E4.41846
G1 X-25.644 Y-4.155 E6.99239
G1 X-25.644 Y-52.345 E9.41085
G1 X25.584 Y-52.345 E11.98177
G1 X25.989 Y-52.69 F7800
;TYPE:External perimeter
G1 F1800
G1 X25.989 Y-3.81 E14.43485
G1 X-25.989 Y-3.81 E17.04341
G1 X-25.989 Y-52.69 E19.49649
G1 X25.929 Y-52.69 E22.10204
G1 X25.988 Y-52.295 F7800
G1 X25.541 Y-51.544
;TYPE:Solid infill
;WIDTH:0.420421
G1 F1800
G1 X24.998 Y-52.087 E22.14063
G1 X24.509 Y-52.087 E22.1652
G1 X25.385 Y-51.211 E22.22745
G1 X25.385 Y-50.722 E22.25202
G1 X24.021 Y-52.087 E22.34898
G1 X23.533 Y-52.087 E22.3735
G1 X25.385 Y-50.234 E22.50514
G1 X25.385 Y-49.746 E22.52966
G1 X23.044 Y-52.087 E22.69601
G1 X22.556 Y-52.087 E22.72053
G1 X25.385 Y-49.257 E22.92159
G1 X25.385 Y-48.769 E22.94611
G1 X22.068 Y-52.087 E23.18185
G1 X21.579 Y-52.087 E23.20642
G1 X25.385 Y-48.281 E23.47687
G1 X25.385 Y-47.792 E23.50144
G1 X21.091 Y-52.087 E23.80661
G1 X20.603 Y-52.087 E23.83113
G1 X25.385 Y-47.304 E24.17098
G1 X25.385 Y-46.816 E24.1955
G1 X20.114 Y-52.087 E24.57006
G1 X19.626 Y-52.087 E24.59458
G1 X25.385 Y-46.327 E25.00385
G1 X25.385 Y-45.839 E25.02837
G1 X19.138 Y-52.087 E25.47232
G1 X18.649 Y-52.087 E25.49689
G1 X25.385 Y-45.351 E25.97555
G1 X25.385 Y-44.862 E26.00012
G1 X18.161 Y-52.087 E26.51349
G1 X17.673 Y-52.087 E26.53801
G1 X25.385 Y-44.374 E27.08606
G1 X25.385 Y-43.886 E27.11058
G1 X17.184 Y-52.087 E27.69334
G1 X16.696 Y-52.087 E27.71786
G1 X25.385 Y-43.397 E28.33534
G1 X25.385 Y-42.909 E28.35986
G1 X16.208 Y-52.087 E29.01201
G1 X15.719 Y-52.087 E29.03658
G1 X25.385 Y-42.421 E29.72345
G1 X25.385 Y-41.932 E29.74802
G1 X15.231 Y-52.087 E30.4696
G1 X14.743 Y-52.087 E30.49412
G1 X25.385 Y-41.444 E31.25038
G1 X25.385 Y-40.956 E31.2749
G1 X14.254 Y-52.087 E32.06587
G1 X13.766 Y-52.087 E32.09039
G1 X25.385 Y-40.467 E32.91607
G1 X25.385 Y-39.979 E32.94059
G1 X13.278 Y-52.087 E33.80095
G1 X12.789 Y-52.087 E33.82552
G1 X25.385 Y-39.49 E34.72063
G1 X25.385 Y-39.002 E34.74515
G1 X12.301 Y-52.087 E35.67494
G1 X11.813 Y-52.087 E35.69946
G1 X25.385 Y-38.514 E36.66392
G1 X25.385 Y-38.025 E36.68849
G1 X11.324 Y-52.087 E37.6877
G1 X10.836 Y-52.087 E37.71222
G1 X25.385 Y-37.537 E38.74611
G1 X25.385 Y-37.049 E38.77063
G1 X10.347 Y-52.087 E39.83923
G1 X9.859 Y-52.087 E39.86375
G1 X25.385 Y-36.56 E40.96707
G1 X25.385 Y-36.072 E40.99159
G1 X9.371 Y-52.087 E42.12958
G1 X8.882 Y-52.087 E42.15415
G1 X25.385 Y-35.584 E43.32686
G1 X25.385 Y-35.095 E43.35143
G1 X8.394 Y-52.087 E44.55885
G1 X7.906 Y-52.087 E44.58337
G1 X25.385 Y-34.607 E45.82547
G1 X25.385 Y-34.119 E45.84999
G1 X7.417 Y-52.087 E47.1268
G1 X6.929 Y-52.087 E47.15132
G1 X25.385 Y-33.63 E48.46284
G1 X25.385 Y-33.142 E48.48736
G1 X6.441 Y-52.087 E49.83356
G1 X5.952 Y-52.087 E49.85813
G1 X25.385 Y-32.654 E51.23904
G1 X25.385 Y-32.165 E51.26361
G1 X5.464 Y-52.087 E52.67924
G1 X4.976 Y-52.087 E52.70376
G1 X25.385 Y-31.677 E54.15406
G1 X25.385 Y-31.189 E54.17858
G1 X4.487 Y-52.087 E55.6636
G1 X3.999 Y-52.087 E55.68812
G1 X25.385 Y-30.7 E57.20785
G1 X25.385 Y-30.212 E57.23237
G1 X3.511 Y-52.087 E58.78678
G1 X3.022 Y-52.087 E58.81135
G1 X25.385 Y-29.724 E60.40047
G1 X25.385 Y-29.235 E60.42504
G1 X2.534 Y-52.087 E62.04887
G1 X2.046 Y-52.087 E62.07339
G1 X25.385 Y-28.747 E63.7319
G1 X25.385 Y-28.259 E63.75642
G1 X1.557 Y-52.087 E65.44964
G1 X1.069 Y-52.087 E65.47416
G1 X25.385 Y-27.77 E67.20209
G1 X25.385 Y-27.282 E67.22661
G1 X.581 Y-52.087 E68.98922
G1 X.092 Y-52.087 E69.01379
G1 X25.385 Y-26.794 E70.81111
G1 X25.385 Y-26.305 E70.83568
G1 X-.396 Y-52.087 E72.66772
G1 X-.884 Y-52.087 E72.69224
G1 X25.385 Y-25.817 E74.55896
G1 X25.385 Y-25.329 E74.58348
G1 X-1.373 Y-52.087 E76.48491
G1 X-1.861 Y-52.087 E76.50943
G1 X25.385 Y-24.84 E78.44557
G1 X25.385 Y-24.352 E78.47009
G1 X-2.349 Y-52.087 E80.44091
G1 X-2.838 Y-52.087 E80.46548
G1 X25.385 Y-23.864 E82.47101
G1 X25.385 Y-23.375 E82.49558
G1 X-3.326 Y-52.087 E84.53582
G1 X-3.814 Y-52.087 E84.56034
G1 X25.385 Y-22.887 E86.63526
G1 X25.385 Y-22.399 E86.65978
G1 X-4.303 Y-52.087 E88.76941
G1 X-4.791 Y-52.087 E88.79393
G1 X25.385 Y-21.91 E90.93828
G1 X25.385 Y-21.422 E90.9628
G1 X-5.279 Y-52.087 E93.14182
G1 X-5.768 Y-52.087 E93.16639
G1 X25.385 Y-20.933 E95.38016
G1 X25.385 Y-20.445 E95.40468
G1 X-6.256 Y-52.087 E97.65313
G1 X-6.744 Y-52.087 E97.67765
G1 X25.385 Y-19.957 E99.96078
G1 X25.385 Y-19.468 E99.98535
G1 X-7.233 Y-52.087 E102.30323
G1 X-7.721 Y-52.087 E102.32775
G1 X25.385 Y-18.98 E104.6803
G1 X25.385 Y-18.492 E104.70482
G1 X-8.21 Y-52.087 E107.09209
G1 X-8.698 Y-52.087 E107.11661
G1 X25.385 Y-18.003 E109.53859
G1 X25.385 Y-17.515 E109.56311
G1 X-9.186 Y-52.087 E112.01977
G1 X-9.675 Y-52.087 E112.04434
G1 X25.385 Y-17.027 E114.53571
G1 X25.385 Y-16.538 E114.56028
G1 X-10.163 Y-52.087 E117.08636
G1 X-10.651 Y-52.087 E117.11088
G1 X25.385 Y-16.05 E119.67164
G1 X25.385 Y-15.562 E119.69616
G1 X-11.14 Y-52.087 E122.29163
G1 X-11.628 Y-52.087 E122.31615
G1 X25.385 Y-15.073 E124.94634
G1 X25.385 Y-14.585 E124.97086
G1 X-12.116 Y-52.087 E127.63572
G1 X-12.605 Y-52.087 E127.66029
G1 X25.385 Y-14.097 E130.35987
G1 X25.385 Y-13.608 E130.38444
G1 X-13.093 Y-52.087 E133.11873
G1 X-13.581 Y-52.087 E133.14325
G1 X25.385 Y-13.12 E135.91222
G1 X25.385 Y-12.632 E135.93674
G1 X-14.07 Y-52.087 E138.74042
G1 X-14.558 Y-52.087 E138.76494
G1 X25.385 Y-12.143 E141.60333
G1 X25.385 Y-11.655 E141.62785
G1 X-15.046 Y-52.087 E144.50092
G1 X-15.535 Y-52.087 E144.52549
G1 X25.385 Y-11.167 E147.43327
G1 X25.385 Y-10.678 E147.45784
G1 X-16.023 Y-52.087 E150.40033
G1 X-16.511 Y-52.087 E150.42485
G1 X25.385 Y-10.19 E153.40202
G1 X25.385 Y-9.702 E153.42654
G1 X-17 Y-52.087 E156.43843
G1 X-17.488 Y-52.087 E156.46295
G1 X25.385 Y-9.213 E159.50955
G1 X25.385 Y-8.725 E159.53407
G1 X-17.976 Y-52.087 E162.61535
G1 X-18.465 Y-52.087 E162.63992
G1 X25.385 Y-8.237 E165.75591
G1 X25.385 Y-7.748 E165.78048
G1 X-18.953 Y-52.087 E168.93118
G1 X-19.441 Y-52.087 E168.9557
G1 X25.385 Y-7.26 E172.14108
G1 X25.385 Y-6.772 E172.1656
G1 X-19.93 Y-52.087 E175.38569
G1 X-20.418 Y-52.087 E175.41021
G1 X25.385 Y-6.283 E178.66501
G1 X25.385 Y-5.795 E178.68953
G1 X-20.906 Y-52.087 E181.97901
G1 X-21.395 Y-52.087 E182.00358
G1 X25.385 Y-5.307 E185.32777
G1 X25.385 Y-4.818 E185.35234
G1 X-21.883 Y-52.087 E188.71125
G1 X-22.371 Y-52.087 E188.73577
G1 X25.301 Y-4.414 E192.12339
G1 X24.813 Y-4.414 E192.14791
G1 X-22.86 Y-52.087 E195.53556
G1 X-23.348 Y-52.087 E195.56008
G1 X24.325 Y-4.414 E198.94773
G1 X23.836 Y-4.414 E198.9723
G1 X-23.836 Y-52.087 E202.35992
G1 X-24.325 Y-52.087 E202.38449
G1 X23.348 Y-4.414 E205.77214
G1 X22.86 Y-4.414 E205.79666
G1 X-24.813 Y-52.087 E209.18431
G1 X-25.301 Y-52.087 E209.20883
G1 X22.371 Y-4.414 E212.59645
G1 X21.883 Y-4.414 E212.62097
G1 X-25.385 Y-51.682 E215.97984
G1 X-25.385 Y-51.194 E216.00436
G1 X21.395 Y-4.414 E219.32855
G1 X20.906 Y-4.414 E219.35312
G1 X-25.385 Y-50.706 E222.6426
G1 X-25.385 Y-50.217 E222.66717
G1 X20.418 Y-4.414 E225.92194
G1 X19.93 Y-4.414 E225.94646
G1 X-25.385 Y-49.729 E229.16655
G1 X-25.385 Y-49.241 E229.19107
G1 X19.441 Y-4.414 E232.37645
G1 X18.953 Y-4.414 E232.40097
G1 X-25.385 Y-48.752 E235.55164
G1 X-25.385 Y-48.264 E235.57616
G1 X18.465 Y-4.414 E238.69215
G1 X17.976 Y-4.414 E238.71672
G1 X-25.385 Y-47.776 E241.798
G1 X-25.385 Y-47.287 E241.82257
G1 X17.488 Y-4.414 E244.86913
G1 X17 Y-4.414 E244.89365
G1 X-25.385 Y-46.799 E247.90554
G1 X-25.385 Y-46.311 E247.93006
G1 X16.511 Y-4.414 E250.90723
G1 X16.023 Y-4.414 E250.93175
G1 X-25.385 Y-45.822 E253.87421
G1 X-25.385 Y-45.334 E253.89873
G1 X15.535 Y-4.414 E256.80651
G1 X15.046 Y-4.414 E256.83108
G1 X-25.385 Y-44.846 E259.70415
G1 X-25.385 Y-44.357 E259.72872
G1 X14.558 Y-4.414 E262.56708
G1 X14.07 Y-4.414 E262.5916
G1 X-25.385 Y-43.869 E265.39528
G1 X-25.385 Y-43.381 E265.4198
G1 X13.581 Y-4.414 E268.18877
G1 X13.093 Y-4.414 E268.21329
G1 X-25.385 Y-42.892 E270.94754
G1 X-25.385 Y-42.404 E270.97206
G1 X12.605 Y-4.414 E273.67164
G1 X12.116 Y-4.414 E273.69621
G1 X-25.385 Y-41.916 E276.36107
G1 X-25.385 Y-41.427 E276.38564
G1 X11.628 Y-4.414 E279.01579
G1 X11.14 Y-4.414 E279.04031
G1 X-25.385 Y-40.939 E281.63578
G1 X-25.385 Y-40.45 E281.66035
G1 X10.651 Y-4.414 E284.22107
G1 X10.163 Y-4.414 E284.24559
G1 X-25.385 Y-39.962 E286.77164
G1 X-25.385 Y-39.474 E286.79616
G1 X9.675 Y-4.414 E289.28753
G1 X9.186 Y-4.414 E289.3121
G1 X-25.385 Y-38.985 E291.76872
G1 X-25.385 Y-38.497 E291.79324
G1 X8.698 Y-4.414 E294.21518
G1 X8.209 Y-4.414 E294.23975
G1 X-25.385 Y-38.009 E296.62698
G1 X-25.385 Y-37.52 E296.65155
G1 X7.721 Y-4.414 E299.00407
G1 X7.233 Y-4.414 E299.02859
G1 X-25.385 Y-37.032 E301.34643
G1 X-25.385 Y-36.544 E301.37095
G1 X6.744 Y-4.414 E303.65408
G1 X6.256 Y-4.414 E303.6786
G1 X-25.385 Y-36.055 E305.92701
G1 X-25.385 Y-35.567 E305.95153
G1 X5.768 Y-4.414 E308.16527
G1 X5.279 Y-4.414 E308.18984
G1 X-25.385 Y-35.079 E310.36886
G1 X-25.385 Y-34.59 E310.39343
G1 X4.791 Y-4.414 E312.53774
G1 X4.303 Y-4.414 E312.56226
G1 X-25.385 Y-34.102 E314.67189
G1 X-25.385 Y-33.614 E314.69641
G1 X3.814 Y-4.414 E316.77133
G1 X3.326 Y-4.414 E316.79585
G1 X-25.385 Y-33.125 E318.83606
G1 X-25.385 Y-32.637 E318.86058
G1 X2.838 Y-4.414 E320.86611
G1 X2.349 Y-4.414 E320.89068
G1 X-25.385 Y-32.149 E322.8615
G1 X-25.385 Y-31.66 E322.88607
G1 X1.861 Y-4.414 E324.82218
G1 X1.373 Y-4.414 E324.8467
G1 X-25.385 Y-31.172 E326.74813
G1 X-25.385 Y-30.684 E326.77265
G1 X.884 Y-4.414 E328.63937
G1 X.396 Y-4.414 E328.66389
G1 X-25.385 Y-30.195 E330.49589
G1 X-25.385 Y-29.707 E330.52041
G1 X-.092 Y-4.414 E332.31773
G1 X-.581 Y-4.414 E332.3423
G1 X-25.385 Y-29.219 E334.10491
G1 X-25.385 Y-28.73 E334.12948
G1 X-1.069 Y-4.414 E335.85738
G1 X-1.557 Y-4.414 E335.8819
G1 X-25.385 Y-28.242 E337.57512
G1 X-25.385 Y-27.754 E337.59964
G1 X-2.046 Y-4.414 E339.25815
G1 X-2.534 Y-4.414 E339.28267
G1 X-25.385 Y-27.265 E340.90647
G1 X-25.385 Y-26.777 E340.93099
G1 X-3.022 Y-4.414 E342.52011
G1 X-3.511 Y-4.414 E342.54468
G1 X-25.385 Y-26.289 E344.09909
G1 X-25.385 Y-25.8 E344.12366
G1 X-3.999 Y-4.414 E345.64335
G1 X-4.487 Y-4.414 E345.66787
G1 X-25.385 Y-25.312 E347.15289
G1 X-25.385 Y-24.824 E347.17741
G1 X-4.976 Y-4.414 E348.62771
G1 X-5.464 Y-4.414 E348.65223
G1 X-25.385 Y-24.335 E350.06782
G1 X-25.385 Y-23.847 E350.09234
G1 X-5.952 Y-4.414 E351.47325
G1 X-6.441 Y-4.414 E351.49782
G1 X-25.385 Y-23.359 E352.84402
G1 X-25.385 Y-22.87 E352.86859
G1 X-6.929 Y-4.414 E354.18008
G1 X-7.417 Y-4.414 E354.2046
G1 X-25.385 Y-22.382 E355.48141
G1 X-25.385 Y-21.893 E355.50598
G1 X-7.906 Y-4.414 E356.74804
G1 X-8.394 Y-4.414 E356.77256
G1 X-25.385 Y-21.405 E357.97994
G1 X-25.385 Y-20.917 E358.00446
G1 X-8.882 Y-4.414 E359.17717
G1 X-9.371 Y-4.414 E359.20174
G1 X-25.385 Y-20.428 E360.3397
G1 X-25.385 Y-19.94 E360.36422
G1 X-9.859 Y-4.414 E361.4675
G1 X-10.348 Y-4.414 E361.49207
G1 X-25.385 Y-19.452 E362.56064
G1 X-25.385 Y-18.963 E362.58521
G1 X-10.836 Y-4.414 E363.61906
G1 X-11.324 Y-4.414 E363.64358
G1 X-25.385 Y-18.475 E364.64276
G1 X-25.385 Y-17.987 E364.66728
G1 X-11.813 Y-4.414 E365.63174
G1 X-12.301 Y-4.414 E365.65626
G1 X-25.385 Y-17.498 E366.58601
G1 X-25.385 Y-17.01 E366.61053
G1 X-12.789 Y-4.414 E367.5056
G1 X-13.278 Y-4.414 E367.53017
G1 X-25.385 Y-16.522 E368.39053
G1 X-25.385 Y-16.033 E368.4151
G1 X-13.766 Y-4.414 E369.24075
G1 X-14.254 Y-4.414 E369.26527
G1 X-25.385 Y-15.545 E370.05624
G1 X-25.385 Y-15.057 E370.08076
G1 X-14.743 Y-4.414 E370.83702
G1 X-15.231 Y-4.414 E370.86154
G1 X-25.385 Y-14.568 E371.58308
G1 X-25.385 Y-14.08 E371.6076
G1 X-15.719 Y-4.414 E372.29447
G1 X-16.208 Y-4.414 E372.31904
G1 X-25.385 Y-13.592 E372.97119
G1 X-25.385 Y-13.103 E372.99576
G1 X-16.696 Y-4.414 E373.6132
G1 X-17.184 Y-4.414 E373.63772
G1 X-25.385 Y-12.615 E374.22048
G1 X-25.385 Y-12.127 E374.245
G1 X-17.673 Y-4.414 E374.79305
G1 X-18.161 Y-4.414 E374.81757
G1 X-25.385 Y-11.638 E375.33091
G1 X-25.385 Y-11.15 E375.35543
G1 X-18.649 Y-4.414 E375.83409
G1 X-19.138 Y-4.414 E375.85866
G1 X-25.385 Y-10.662 E376.30261
G1 X-25.385 Y-10.173 E376.32718
G1 X-19.626 Y-4.414 E376.73642
G1 X-20.114 Y-4.414 E376.76094
G1 X-25.385 Y-9.685 E377.1355
G1 X-25.385 Y-9.197 E377.16002
G1 X-20.603 Y-4.414 E377.49987
G1 X-21.091 Y-4.414 E377.52439
G1 X-25.385 Y-8.708 E377.82952
G1 X-25.385 Y-8.22 E377.85404
G1 X-21.579 Y-4.414 E378.12449
G1 X-22.068 Y-4.414 E378.14906
G1 X-25.385 Y-7.732 E378.3848
G1 X-25.385 Y-7.243 E378.40937
G1 X-22.556 Y-4.414 E378.6104
G1 X-23.044 Y-4.414 E378.63492
G1 X-25.385 Y-6.755 E378.80127
G1 X-25.385 Y-6.267 E378.82579
G1 X-23.533 Y-4.414 E378.95743
G1 X-24.021 Y-4.414 E378.98195
G1 X-25.385 Y-5.778 E379.07888
G1 X-25.385 Y-5.29 E379.1034
G1 X-24.509 Y-4.414 E379.16565
G1 X-24.998 Y-4.414 E379.19022
G1 X-25.541 Y-4.957 E379.22881
G1 E377.22881 F2400
G92 E0
G92 E0
G1 X8.183 Y44.385 F7800
G1 E2 F2400
;TYPE:Perimeter
;WIDTH:0.42
G1 F1800
G1 X6.746 Y45.02 E2.07884
G1 X5.232 Y45.527 E2.15897
G1 X3.677 Y45.893 E2.23914
G1 X2.095 Y46.114 E2.3193
G1 X.5 Y46.187 E2.39943
G1 X-1.095 Y46.114 E2.47956
G1 X-2.677 Y45.893 E2.55972
G1 X-4.232 Y45.527 E2.63989
G1 X-5.746 Y45.02 E2.72002
G1 X-7.207 Y44.375 E2.80017
G1 X-8.602 Y43.598 E2.88031
G1 X-9.919 Y42.695 E2.96045
G1 X-11.148 Y41.675 E3.0406
G1 X-12.277 Y40.546 E3.12073
G1 X-13.298 Y39.317 E3.20092
G1 X-14.2 Y37.999 E3.28107
G1 X-14.977 Y36.604 E3.36121
G1 X-15.622 Y35.143 E3.44136
G1 X-16.13 Y33.629 E3.5215
G1 X-16.495 Y32.074 E3.60166
G1 X-16.716 Y30.493 E3.68178
G1 X-16.79 Y28.897 E3.76196
