; generated by PrusaSlicer 2.9.5 on 2026-06-24 at 22:26:42 UTC

; 

; external perimeters extrusion width = 0.45mm
; perimeters extrusion width = 0.45mm
; infill extrusion width = 0.45mm
; solid infill extrusion width = 0.45mm
; top infill extrusion width = 0.40mm
; first layer extrusion width = 0.42mm

; external perimeters extrusion width = 0.45mm
; perimeters extrusion width = 0.45mm
; infill extrusion width = 0.45mm
; solid infill extrusion width = 0.45mm
; top infill extrusion width = 0.40mm
; first layer extrusion width = 0.42mm

; external perimeters extrusion width = 0.45mm
; perimeters extrusion width = 0.45mm
; infill extrusion width = 0.45mm
; solid infill extrusion width = 0.45mm
; top infill extrusion width = 0.40mm
; first layer extrusion width = 0.42mm

; external perimeters extrusion width = 0.45mm
; perimeters extrusion width = 0.45mm
; infill extrusion width = 0.45mm
; solid infill extrusion width = 0.45mm
; top infill extrusion width = 0.40mm
; first layer extrusion width = 0.42mm

M190 S70 ; set bed temperature and wait for it to be reached
M104 S208 ; set temperature
;TYPE:Custom
G28 ; home all axes
G1 Z5 F5000 ; lift nozzle
M109 S208 ; set temperature and wait for it to be reached
G21 ; set units to millimeters
G90 ; use absolute coordinates
M82 ; use absolute distances for extrusion
G92 E0
; Filament gcode
M107
;LAYER_CHANGE
;Z:0.35
;HEIGHT:0.35
G1 E-2 F2400
G92 E0
G1 Z.35 F7800
G1 X-.002 Y44.015
G1 E2 F2400
;TYPE:Skirt/Brim
;WIDTH:0.42
G1 F1800
G1 X-47.683 Y44.013 E4.39291
G1 X-48.561 Y43.924 E4.4372
G1 X-49.211 Y43.77 E4.47072
G1 X-50.092 Y43.431 E4.51809
G1 X-50.933 Y42.944 E4.56686
G1 X-51.664 Y42.346 E4.61426
G1 X-52.292 Y41.641 E4.66164
G1 X-52.79 Y40.87 E4.7077
G1 X-53.264 Y39.732 E4.76957
G1 X-53.462 Y38.822 E4.81631
G1 X-53.516 Y38.092 E4.85305
G1 X-53.517 Y35.957 E4.9602
G1 X-55.426 Y34.048 E5.09569
G1 X-55.517 Y33.815 E5.10824
G1 X-55.512 Y29.143 E5.34271
G1 X-55.417 Y28.943 E5.35382
G1 X-53.517 Y27.043 E5.48867
G1 X-53.517 Y9.017 E6.39332
G1 X-61.357 Y9.012 E6.78678
G1 X-61.557 Y8.917 E6.79789
G1 X-63.417 Y7.057 E6.9299
G1 X-63.517 Y6.828 E6.94244
G1 X-63.512 Y2.143 E7.17756
G1 X-63.417 Y1.943 E7.18867
G1 X-61.548 Y.074 E7.32132
G1 X-61.315 Y-.017 E7.33387
G1 X-55.516 Y-.017 E7.6249
G1 X-55.516 Y-62.315 E10.75138
G1 X-55.425 Y-62.548 E10.76393
G1 X-53.547 Y-64.426 E10.89722
G1 X-53.314 Y-64.517 E10.90977
G1 X53.356 Y-64.512 E16.2631
G1 X53.556 Y-64.417 E16.27421
G1 X55.425 Y-62.548 E16.40686
G1 X55.516 Y-62.315 E16.41941
G1 X55.516 Y-.017 E19.54589
G1 X61.328 Y-.017 E19.83757
G1 X61.557 Y.083 E19.85011
G1 X63.417 Y1.943 E19.98212
G1 X63.512 Y2.143 E19.99323
G1 X63.517 Y6.815 E20.2277
G1 X63.426 Y7.048 E20.24025
G1 X61.557 Y8.917 E20.3729
G1 X61.357 Y9.012 E20.38401
G1 X53.517 Y9.017 E20.77747
G1 X53.517 Y27.043 E21.68212
G1 X55.417 Y28.943 E21.81697
G1 X55.512 Y29.143 E21.82808
G1 X55.517 Y33.815 E22.06255
G1 X55.426 Y34.048 E22.0751
G1 X53.517 Y35.957 E22.21059
G1 X53.516 Y38.09 E22.31764
G1 X53.463 Y38.815 E22.35412
G1 X53.27 Y39.711 E22.40012
G1 X52.794 Y40.863 E22.46268
G1 X52.297 Y41.634 E22.50872
G1 X51.846 Y42.164 E22.54365
G1 X50.939 Y42.939 E22.60352
G1 X50.1 Y43.428 E22.65226
G1 X49.245 Y43.76 E22.69829
G1 X48.595 Y43.918 E22.73186
G1 X47.567 Y44.017 E22.78369
G1 X.058 Y44.015 E25.16797
G1 X.058 Y43.67 F7800
G1 F1800
G1 X-47.677 Y43.668 E27.56359
G1 X-49.124 Y43.436 E27.63714
G1 X-49.954 Y43.115 E27.6818
G1 X-50.735 Y42.661 E27.72714
G1 X-51.425 Y42.097 E27.77186
G1 X-52.017 Y41.433 E27.8165
G1 X-52.492 Y40.695 E27.86055
G1 X-52.934 Y39.631 E27.91837
G1 X-53.12 Y38.775 E27.96233
G1 X-53.172 Y38.074 E27.99761
G1 X-53.172 Y35.716 E28.11595
G1 X-53.34 Y35.646 E28.12508
G1 X-55.172 Y33.777 E28.25642
G1 X-55.172 Y29.223 E28.48497
G1 X-53.34 Y27.354 E28.61631
G1 X-53.172 Y27.284 E28.62544
G1 X-53.172 Y8.672 E29.5595
G1 X-61.277 Y8.672 E29.96626
G1 X-63.172 Y6.777 E30.10075
G1 X-63.172 Y2.223 E30.3293
G1 X-61.34 Y.354 E30.46064
G1 X-55.171 Y.328 E30.77024
G1 X-55.145 Y-62.34 E33.91529
G1 X-53.276 Y-64.172 E34.04663
G1 X53.276 Y-64.172 E39.39404
G1 X55.171 Y-62.277 E39.52853
G1 X55.171 Y.328 E42.67042
G1 X61.34 Y.354 E42.98002
G1 X63.172 Y2.223 E43.11136
G1 X63.172 Y6.777 E43.33991
G1 X61.277 Y8.672 E43.4744
G1 X53.172 Y8.672 E43.88116
G1 X53.172 Y27.284 E44.81522
G1 X53.34 Y27.354 E44.82435
G1 X55.172 Y29.223 E44.95569
G1 X55.172 Y33.777 E45.18424
G1 X53.34 Y35.646 E45.31558
G1 X53.172 Y35.716 E45.32471
G1 X53.172 Y38.071 E45.4429
G1 X53.121 Y38.768 E45.47797
G1 X52.936 Y39.624 E45.52192
G1 X52.496 Y40.689 E45.57975
G1 X52.022 Y41.427 E45.62377
G1 X51.597 Y41.925 E45.65663
G1 X50.742 Y42.656 E45.71308
G1 X49.961 Y43.112 E45.75847
G1 X48.521 Y43.581 E45.83447
G1 X47.561 Y43.672 E45.88286
G1 X.118 Y43.67 E48.26383
G1 E46.26383 F2400
G92 E0
G1 X-33.634 Y32.152 F7800
G1 E2 F2400
G1 F1800
G1 X-33.694 Y32.328 E2.00933
G1 X-44.828 Y32.328 E2.5681
G1 X-44.828 Y5.939 E3.89246
G1 X-44.919 Y4.979 E3.94085
G1 X-45.143 Y4.131 E3.98487
G1 X-45.394 Y3.527 E4.0177
G1 X-45.983 Y2.567 E4.07422
G1 X-46.829 Y1.682 E4.13566
G1 X-46.829 Y-23.826 E5.4158
G1 X-31.071 Y-23.826 E6.20663
G1 X-31.012 Y-23.553 E6.22065
G1 X-31.807 Y-23.194 E6.26443
G1 X-33.049 Y-22.475 E6.33645
G1 X-34.222 Y-21.634 E6.40888
G1 X-35.427 Y-20.568 E6.48962
G1 X-36.439 Y-19.463 E6.56482
G1 X-37.134 Y-18.55 E6.6224
G1 X-37.805 Y-17.512 E6.68443
G1 X-38.377 Y-16.433 E6.74572
G1 X-39.233 Y-14.213 E6.86513
G1 X-39.688 Y-12.153 E6.971
G1 X-39.809 Y-11.013 E7.02853
G1 X-39.829 Y-9.331 E7.11295
G1 X-39.737 Y-8.218 E7.169
G1 X-39.501 Y-6.826 E7.23986
G1 X-39.205 Y-5.688 E7.29887
G1 X-38.7 Y-4.284 E7.37375
G1 X-37.735 Y-2.371 E7.48128
G1 X-36.379 Y-.465 E7.59867
G1 X-35.521 Y.474 E7.6625
G1 X-34.468 Y1.435 E7.73404
G1 X-32.699 Y2.694 E7.84301
G1 X-30.828 Y3.655 E7.94857
G1 X-29.671 Y4.092 E8.01064
G1 X-28.294 Y4.476 E8.08238
G1 X-26.871 Y4.728 E8.15491
G1 X-25.447 Y4.834 E8.22657
G1 X-25.449 Y5.156 E8.24273
G1 X-27.869 Y5.433 E8.36497
G1 X-29.051 Y5.718 E8.42599
G1 X-30.396 Y6.17 E8.4972
G1 X-32.596 Y7.244 E8.62006
G1 X-34.213 Y8.359 E8.71863
G1 X-35.088 Y9.109 E8.77647
G1 X-36.113 Y10.156 E8.85
G1 X-37.134 Y11.45 E8.93272
G1 X-37.805 Y12.488 E8.99475
G1 X-38.382 Y13.576 E9.05656
G1 X-39.231 Y15.779 E9.17505
G1 X-39.69 Y17.862 E9.2821
G1 X-39.845 Y19.972 E9.38828
G1 X-39.737 Y21.782 E9.47928
G1 X-39.501 Y23.174 E9.55014
G1 X-39.05 Y24.79 E9.63434
G1 X-38.516 Y26.136 E9.70701
G1 X-37.989 Y27.189 E9.7661
G1 X-37.263 Y28.367 E9.83554
G1 X-36.379 Y29.535 E9.90905
G1 X-35.521 Y30.474 E9.97288
G1 X-34.475 Y31.429 E10.04396
G1 X-33.615 Y32.094 E10.09852
G1 X-34.364 Y31.983 F7800
G1 F1800
G1 X-44.483 Y31.983 E10.60635
G1 X-44.483 Y5.92 E11.91435
G1 X-44.582 Y4.905 E11.96553
G1 X-44.817 Y4.018 E12.01158
G1 X-45.078 Y3.388 E12.0458
G1 X-45.708 Y2.359 E12.10635
G1 X-46.484 Y1.531 E12.1633
G1 X-46.484 Y-23.481 E13.41855
G1 X-32.535 Y-23.481 E14.11859
G1 X-32.465 Y-23.228 E14.13176
G1 X-34.434 Y-21.906 E14.25078
G1 X-35.316 Y-21.15 E14.30908
G1 X-36.366 Y-20.078 E14.38439
G1 X-37.42 Y-18.743 E14.46975
G1 X-38.098 Y-17.693 E14.53248
G1 X-38.684 Y-16.59 E14.59516
G1 X-39.563 Y-14.315 E14.71756
G1 X-40.027 Y-12.211 E14.82569
G1 X-40.19 Y-10.046 E14.93465
G1 X-40.08 Y-8.182 E15.02836
G1 X-39.84 Y-6.761 E15.10068
G1 X-39.535 Y-5.586 E15.1616
G1 X-39.018 Y-4.149 E15.23824
G1 X-38.028 Y-2.189 E15.34844
G1 X-36.638 Y-.237 E15.4687
G1 X-35.764 Y.719 E15.53371
G1 X-34.69 Y1.699 E15.60668
G1 X-32.883 Y2.986 E15.71802
G1 X-30.972 Y3.968 E15.82585
G1 X-29.772 Y4.422 E15.89024
G1 X-28.116 Y4.871 E15.97635
G1 X-28.119 Y5.139 E15.9898
G1 X-29.153 Y5.388 E16.04318
G1 X-30.514 Y5.846 E16.11525
G1 X-31.955 Y6.495 E16.19456
G1 X-33.903 Y7.694 E16.30936
G1 X-35.668 Y9.186 E16.42535
G1 X-36.71 Y10.324 E16.50279
G1 X-38.106 Y12.32 E16.62503
G1 X-38.883 Y13.848 E16.71106
G1 X-39.325 Y14.947 E16.77051
G1 X-39.757 Y16.404 E16.84678
G1 X-40.03 Y17.804 E16.91836
G1 X-40.152 Y18.945 E16.97595
G1 X-40.173 Y20.692 E17.06363
G1 X-40.078 Y21.833 E17.12109
G1 X-39.84 Y23.239 E17.19266
G1 X-39.377 Y24.901 E17.27925
G1 X-38.826 Y26.287 E17.3541
G1 X-38.29 Y27.357 E17.41416
G1 X-37.547 Y28.564 E17.48529
G1 X-36.638 Y29.763 E17.5608
G1 X-35.764 Y30.719 E17.62581
G1 X-34.408 Y31.942 E17.71745
G1 E15.71745 F2400
G92 E0
G1 X-16.38 Y32.094 F7800
G1 E2 F2400
G1 F1800
G1 X-15.032 Y31.004 E2.087
G1 X-14.118 Y30.103 E2.15141
G1 X-13.182 Y28.99 E2.22439
G1 X-12.362 Y27.794 E2.29717
G1 X-11.801 Y26.801 E2.35441
G1 X-11.072 Y25.134 E2.44572
G1 X-10.482 Y23.105 E2.55176
G1 X-10.169 Y20.746 E2.67119
G1 X-10.239 Y18.398 E2.78908
G1 X-10.417 Y17.199 E2.84991
G1 X-10.75 Y15.825 E2.92086
G1 X-11.511 Y13.797 E3.02957
G1 X-12.701 Y11.681 E3.1514
G1 X-13.348 Y10.796 E3.20642
G1 X-14.307 Y9.7 E3.27951
G1 X-15.187 Y8.856 E3.3407
G1 X-16.314 Y7.957 E3.41305
G1 X-17.47 Y7.202 E3.48234
G1 X-18.464 Y6.67 E3.53892
G1 X-20.094 Y5.986 E3.62763
G1 X-21.5 Y5.572 E3.70119
G1 X-22.587 Y5.351 E3.75686
G1 X-24.56 Y5.157 E3.85635
G1 X-24.553 Y4.828 E3.87286
G1 X-22.643 Y4.659 E3.96909
G1 X-21.266 Y4.37 E4.0397
G1 X-19.928 Y3.955 E4.11
G1 X-18.607 Y3.401 E4.18189
G1 X-17.364 Y2.735 E4.25266
G1 X-16.225 Y1.978 E4.32129
G1 X-15.04 Y1.011 E4.39805
G1 X-14.118 Y.103 E4.46299
G1 X-13.182 Y-1.01 E4.53597
G1 X-12.354 Y-2.218 E4.60947
G1 X-11.634 Y-3.538 E4.68493
G1 X-11.072 Y-4.866 E4.7573
G1 X-10.727 Y-5.904 E4.81219
G1 X-10.371 Y-7.456 E4.8921
G1 X-10.169 Y-9.254 E4.9829
G1 X-10.205 Y-11.248 E5.08299
G1 X-10.417 Y-12.801 E5.16165
G1 X-11.019 Y-15.004 E5.27626
G1 X-11.776 Y-16.754 E5.37195
G1 X-12.701 Y-18.319 E5.46318
G1 X-13.348 Y-19.204 E5.5182
G1 X-14.296 Y-20.289 E5.59051
G1 X-15.187 Y-21.144 E5.65248
G1 X-16.314 Y-22.043 E5.72483
G1 X-17.47 Y-22.798 E5.79412
G1 X-18.944 Y-23.556 E5.8773
G1 X-18.883 Y-23.826 E5.89119
G1 X18.884 Y-23.826 E7.78656
G1 X18.947 Y-23.559 E7.80033
G1 X17.956 Y-23.071 E7.85577
G1 X16.746 Y-22.343 E7.92664
G1 X15.04 Y-21.011 E8.03526
G1 X14.118 Y-20.103 E8.1002
G1 X13.192 Y-19.004 E8.17232
G1 X12.362 Y-17.794 E8.24596
G1 X11.796 Y-16.792 E8.30371
G1 X11.206 Y-15.497 E8.37513
G1 X10.73 Y-14.108 E8.44882
G1 X10.373 Y-12.554 E8.52884
G1 X10.169 Y-10.746 E8.62015
G1 X10.24 Y-8.39 E8.73844
G1 X10.586 Y-6.431 E8.83828
G1 X11.019 Y-4.996 E8.9135
G1 X11.776 Y-3.246 E9.00919
G1 X12.501 Y-1.982 E9.08232
G1 X13.339 Y-.808 E9.15471
G1 X14.296 Y.289 E9.22777
G1 X15.187 Y1.144 E9.28974
G1 X16.327 Y2.052 E9.36288
G1 X17.483 Y2.805 E9.43212
G1 X18.883 Y3.528 E9.5112
G1 X20.094 Y4.014 E9.57669
G1 X21.515 Y4.432 E9.65103
G1 X22.598 Y4.651 E9.70648
G1 X24.56 Y4.843 E9.80542
G1 X24.553 Y5.172 E9.82193
G1 X22.051 Y5.448 E9.94826
G1 X20.686 Y5.793 E10.01892
G1 X19.298 Y6.29 E10.09291
G1 X17.364 Y7.265 E10.20161
G1 X15.543 Y8.553 E10.31355
G1 X14.118 Y9.897 E10.41185
G1 X13.182 Y11.01 E10.48483
G1 X12.362 Y12.206 E10.55761
G1 X11.796 Y13.208 E10.61536
G1 X11.206 Y14.503 E10.68678
G1 X10.73 Y15.892 E10.76047
G1 X10.371 Y17.456 E10.841
G1 X10.154 Y19.853 E10.96179
G1 X10.206 Y21.259 E11.0324
G1 X10.415 Y22.789 E11.1099
G1 X11.017 Y24.996 E11.22471
G1 X11.781 Y26.765 E11.32141
G1 X12.701 Y28.319 E11.41204
G1 X13.339 Y29.192 E11.46631
G1 X14.307 Y30.3 E11.54015
G1 X15.187 Y31.144 E11.60134
G1 X16.382 Y32.097 E11.67805
G1 X16.301 Y32.328 E11.69033
G1 X3.638 Y32.328 E12.32583
G1 X3.569 Y32.072 E12.33914
G1 X4.944 Y31.191 E12.4211
G1 X5.622 Y30.583 E12.4668
G1 X6.625 Y29.341 E12.54692
G1 X7.081 Y28.551 E12.5927
G1 X7.476 Y27.623 E12.64332
G1 X7.729 Y26.741 E12.68937
G1 X7.877 Y25.844 E12.735
G1 X7.922 Y25.051 E12.77486
G1 X7.758 Y23.406 E12.85783
G1 X7.425 Y22.242 E12.91859
G1 X7.127 Y21.541 E12.95682
G1 X6.216 Y20.089 E13.04284
G1 X5.615 Y19.411 E13.08831
G1 X4.516 Y18.5 E13.15995
G1 X5.622 Y17.583 E13.23205
G1 X6.162 Y16.979 E13.27271
G1 X7.076 Y15.56 E13.35742
G1 X7.475 Y14.624 E13.40848
G1 X7.729 Y13.741 E13.45459
G1 X7.877 Y12.844 E13.50022
G1 X7.922 Y12.051 E13.54008
G1 X7.758 Y10.406 E13.62305
G1 X7.425 Y9.242 E13.68381
G1 X7.127 Y8.541 E13.72204
G1 X6.227 Y7.103 E13.80718
G1 X5.629 Y6.425 E13.85255
G1 X4.954 Y5.818 E13.89811
G1 X3.693 Y5.001 E13.97352
G1 X4.959 Y4.179 E14.04927
G1 X6.162 Y2.979 E14.13454
G1 X7.081 Y1.551 E14.21976
G1 X7.476 Y.623 E14.27038
G1 X7.733 Y-.278 E14.3174
G1 X7.922 Y-1.931 E14.4009
G1 X7.877 Y-2.843 E14.44673
G1 X7.676 Y-3.947 E14.50305
G1 X7.419 Y-4.774 E14.54651
G1 X6.69 Y-6.244 E14.62886
G1 X6.227 Y-6.897 E14.66903
G1 X5.615 Y-7.589 E14.71539
G1 X4.516 Y-8.5 E14.78703
G1 X5.622 Y-9.417 E14.85913
G1 X6.151 Y-10.008 E14.89894
G1 X6.634 Y-10.674 E14.94023
G1 X7.203 Y-11.706 E14.99937
G1 X7.729 Y-13.259 E15.08166
G1 X7.875 Y-14.138 E15.12638
G1 X7.877 Y-15.843 E15.21195
G1 X7.673 Y-16.959 E15.26889
G1 X7.128 Y-18.459 E15.34898
G1 X6.68 Y-19.259 E15.395
G1 X5.615 Y-20.589 E15.48051
G1 X4.35 Y-21.619 E15.56238
G1 X3.272 Y-22.212 E15.62413
G1 X1.795 Y-22.717 E15.70247
G1 X.094 Y-22.921 E15.78845
G1 X-1.064 Y-22.848 E15.84668
G1 X-2.7 Y-22.448 E15.9312
G1 X-4.199 Y-21.719 E16.01485
G1 X-4.952 Y-21.185 E16.06118
G1 X-5.622 Y-20.582 E16.10642
G1 X-6.216 Y-19.912 E16.15136
G1 X-7.057 Y-18.594 E16.22982
G1 X-7.479 Y-17.613 E16.28341
G1 X-7.731 Y-16.731 E16.32945
G1 X-7.878 Y-15.838 E16.37487
G1 X-7.878 Y-14.16 E16.45908
G1 X-7.751 Y-13.367 E16.49938
G1 X-7.526 Y-12.531 E16.54283
G1 X-7.127 Y-11.538 E16.59654
G1 X-6.216 Y-10.088 E16.68248
G1 X-5.622 Y-9.418 E16.72742
G1 X-4.513 Y-8.498 E16.79973
G1 X-5.622 Y-7.582 E16.87192
G1 X-6.227 Y-6.898 E16.91775
G1 X-7.057 Y-5.594 E16.99532
G1 X-7.473 Y-4.63 E17.04801
G1 X-7.727 Y-3.75 E17.09398
G1 X-7.878 Y-2.838 E17.14037
G1 X-7.878 Y-1.16 E17.22458
G1 X-7.751 Y-.367 E17.26488
G1 X-7.526 Y.469 E17.30833
G1 X-7.127 Y1.462 E17.36204
G1 X-6.228 Y2.898 E17.44706
G1 X-5.636 Y3.569 E17.49197
G1 X-4.951 Y4.185 E17.5382
G1 X-3.692 Y5.002 E17.61352
G1 X-4.951 Y5.815 E17.68873
G1 X-5.635 Y6.431 E17.73493
G1 X-6.227 Y7.102 E17.77984
G1 X-6.64 Y7.681 E17.81553
G1 X-7.214 Y8.733 E17.87567
G1 X-7.731 Y10.269 E17.95701
G1 X-7.878 Y11.162 E18.00243
G1 X-7.878 Y12.84 E18.08664
G1 X-7.747 Y13.651 E18.12787
G1 X-7.434 Y14.737 E18.18459
G1 X-7.118 Y15.478 E18.22502
G1 X-6.228 Y16.898 E18.30912
G1 X-5.622 Y17.582 E18.35498
G1 X-4.513 Y18.502 E18.42729
G1 X-5.622 Y19.418 E18.49948
G1 X-6.216 Y20.088 E18.54442
G1 X-6.64 Y20.681 E18.581
G1 X-7.218 Y21.742 E18.64164
G1 X-7.727 Y23.25 E18.72152
G1 X-7.876 Y24.143 E18.76696
G1 X-7.878 Y25.84 E18.85213
G1 X-7.747 Y26.651 E18.89336
G1 X-7.434 Y27.737 E18.95008
G1 X-6.681 Y29.258 E19.03525
G1 X-5.622 Y30.582 E19.12034
G1 X-4.937 Y31.197 E19.16654
G1 X-3.569 Y32.071 E19.24801
G1 X-3.638 Y32.328 E19.26136
G1 X-16.3 Y32.328 E19.89681
G1 X-16.36 Y32.151 E19.90619
G1 E17.90619 F2400
G92 E0
G1 X4.766 Y31.744 F7800
G1 E2 F2400
G1 F1800
G1 X5.872 Y30.82 E2.07233
G1 X6.425 Y30.203 E2.11391
G1 X7.394 Y28.696 E2.20383
G1 X7.797 Y27.748 E2.25553
G1 X8.063 Y26.826 E2.30369
G1 X8.221 Y25.873 E2.35217
G1 X8.219 Y24.112 E2.44055
G1 X8.007 Y22.957 E2.49948
G1 X7.746 Y22.116 E2.54367
G1 X6.987 Y20.58 E2.62965
G1 X6.492 Y19.881 E2.67264
G1 X5.866 Y19.174 E2.72003
G1 X5.118 Y18.5 E2.77056
G1 X5.872 Y17.82 E2.82152
G1 X6.919 Y16.521 E2.90525
G1 X7.385 Y15.714 E2.95202
G1 X7.798 Y14.746 E3.00484
G1 X8.063 Y13.826 E3.05289
G1 X8.221 Y12.873 E3.10137
G1 X8.267 Y12.043 E3.14309
G1 X8.097 Y10.345 E3.22873
G1 X7.746 Y9.116 E3.29287
G1 X6.977 Y7.564 E3.3798
G1 X5.881 Y6.189 E3.46805
G1 X5.178 Y5.555 E3.51556
G1 X4.412 Y5 E3.56303
G1 X5.182 Y4.442 E3.61075
G1 X5.872 Y3.82 E3.65737
G1 X6.919 Y2.521 E3.7411
G1 X7.394 Y1.696 E3.78888
G1 X7.797 Y.748 E3.84058
G1 X8.072 Y-.212 E3.8907
G1 X8.267 Y-1.92 E3.97697
G1 X8.221 Y-2.869 E4.02465
G1 X8.01 Y-4.031 E4.08392
G1 X7.745 Y-4.884 E4.12875
G1 X6.987 Y-6.42 E4.21471
G1 X6.503 Y-7.104 E4.25676
G1 X5.867 Y-7.825 E4.30501
G1 X5.118 Y-8.5 E4.35561
G1 X6.425 Y-9.798 E4.44805
G1 X6.929 Y-10.494 E4.49118
G1 X7.521 Y-11.572 E4.5529
G1 X8.063 Y-13.174 E4.63777
G1 X8.217 Y-14.091 E4.68443
G1 X8.221 Y-15.869 E4.77366
G1 X8.004 Y-17.055 E4.83417
G1 X7.441 Y-18.602 E4.91679
G1 X6.967 Y-19.452 E4.96563
G1 X5.867 Y-20.825 E5.05392
G1 X5.164 Y-21.456 E5.10133
G1 X3.69 Y-22.397 E5.18909
G1 X2.666 Y-22.825 E5.24479
